picto/mofa-car-park-right-framed.svg

<svg class="color-immutable" width="30" height="30" viewBox="0 0 30 30" fill="none" xmlns="http://www.w3.org/2000/svg"><path d="M30.0021 0H0.0020752V30H30.0021V0Z" fill="#2D327D"/><path d="M25.5 3C26.325 3 27 3.675 27 4.5V25.5C27 26.325 26.325 27 25.5 27H4.5C3.675 27 3 26.325 3 25.5V4.5C3 3.675 3.675 3 4.5 3H25.5ZM25.5 2.625H4.5C3.46613 2.625 2.625 3.46613 2.625 4.5V25.5C2.625 26.5339 3.46613 27.375 4.5 27.375H25.5C26.5339 27.375 27.375 26.5339 27.375 25.5V4.5C27.375 3.46613 26.5339 2.625 25.5 2.625Z" fill="white"/><path d="M20.478 15.2228L20.475 15.978C20.4772 16.143 20.34 16.2735 20.175 16.275H20.073L19.5585 14.9258H20.175C20.34 14.925 20.4765 15.0585 20.478 15.2228Z" fill="white"/><path d="M5.99695 6H7.81375C8.11967 6 8.36035 6.01905 8.53592 6.05708C8.7115 6.09503 8.86997 6.16215 9.0118 6.25875C9.4039 6.52147 9.60002 6.91762 9.60002 7.44735C9.60002 7.9176 9.43772 8.28705 9.11327 8.556C8.97587 8.6709 8.81875 8.7537 8.6422 8.80387C8.46565 8.85405 8.24807 8.8794 7.98932 8.8794H6.9793V10.5022H5.99695V6ZM6.9793 6.83145V8.10645H7.85695C8.11772 8.10645 8.30552 8.06025 8.42042 7.96785C8.56202 7.85295 8.63297 7.68337 8.63297 7.45957C8.63297 7.23375 8.55085 7.06545 8.38667 6.95452C8.26757 6.87255 8.07347 6.83137 7.80467 6.83137H6.9793V6.83145Z" fill="white"/><path d="M21.375 18.75C21.1513 18.75 20.9342 18.7782 20.7268 18.8309L18.6553 13.3932C18.6095 13.2731 18.495 13.2004 18.3737 13.2008V13.1996H16.3876C16.2008 13.1996 16.0499 13.3511 16.0499 13.5369C16.0499 13.7235 16.2008 13.875 16.3876 13.875H18.1968L20.1663 19.045C19.325 19.4824 18.75 20.3612 18.75 21.375C18.75 22.8248 19.9253 24 21.375 24C22.8248 24 24 22.8248 24 21.375C24 19.9253 22.8248 18.75 21.375 18.75ZM21.375 22.875C20.5463 22.875 19.875 22.2038 19.875 21.375C19.875 20.8421 20.1533 20.3755 20.5719 20.1095L21.0947 21.4818C21.1403 21.6015 21.2542 21.6751 21.3752 21.6751C21.4106 21.6751 21.4468 21.6688 21.4819 21.6554C21.6367 21.5964 21.7145 21.4231 21.6554 21.2682L21.1328 19.8963C21.2119 19.8835 21.2924 19.875 21.3752 19.875C22.2039 19.875 22.8752 20.5463 22.8752 21.375C22.8752 22.2038 22.2038 22.875 21.375 22.875Z" fill="white"/><path d="M11.25 16.35C11.25 15.9772 10.9478 15.675 10.575 15.675H6.75V16.35H11.25Z" fill="white"/><path d="M18.2745 14.925H16.3155C16.161 14.925 16.0185 14.9768 15.9045 15.0645C15.4117 15.4493 14.2702 16.3403 14.13 16.4505C13.9485 16.5945 13.7535 16.65 13.575 16.65C12.0442 16.65 6.74995 16.65 6.74995 16.65V17.55H8.62495C10.637 17.55 12.2847 19.1027 12.4373 21.075H11.2323C11.0834 19.7666 9.97315 18.75 8.62488 18.75C7.17513 18.75 5.99988 19.9253 5.99988 21.375C5.99988 22.8248 7.17513 24 8.62488 24C9.973 24 11.0832 22.9835 11.2323 21.6753L12.975 21.675H16.953C17.2905 21.675 17.5642 21.4013 17.5642 21.0638V21.0428C17.6737 19.7648 18.4117 18.6668 19.4685 18.0593L18.2745 14.925ZM8.62495 22.875C7.7962 22.875 7.12495 22.2038 7.12495 21.375C7.12495 20.5463 7.7962 19.875 8.62495 19.875C9.35095 19.875 9.95598 20.3902 10.0949 21.075H8.62608C8.57073 21.0756 8.51598 21.091 8.46783 21.1208C8.3269 21.2077 8.28228 21.3921 8.36973 21.5339C8.4244 21.6224 8.52063 21.6755 8.62473 21.6758L10.0947 21.6755C9.95568 22.3601 9.35073 22.875 8.62495 22.875Z" fill="white"/></svg>

<svg class="color-immutable" width="30" height="30" viewBox="0 0 30 30" fill="none" xmlns="http://www.w3.org/2000/svg"><g clip-path="url(#a)"><path d="M30.002 0h-30v30h30V0Z" fill="#2D327D"/><path d="M25.5 3c.825 0 1.5.675 1.5 1.5v21c0 .825-.675 1.5-1.5 1.5h-21c-.825 0-1.5-.675-1.5-1.5v-21C3 3.675 3.675 3 4.5 3h21Zm0-.375h-21A1.877 1.877 0 0 0 2.625 4.5v21c0 1.034.841 1.875 1.875 1.875h21a1.877 1.877 0 0 0 1.875-1.875v-21A1.877 1.877 0 0 0 25.5 2.625Z" fill="#fff"/><path d="m20.478 15.223-.003.755a.298.298 0 0 1-.3.297h-.102l-.515-1.35h.617c.165 0 .302.133.303.298ZM5.997 6h1.817c.306 0 .546.02.722.057.175.038.334.105.476.202.392.262.588.659.588 1.188 0 .47-.162.84-.487 1.109a1.265 1.265 0 0 1-.47.248c-.177.05-.395.075-.654.075H6.98v1.623h-.982V6Zm.982.831v1.275h.878c.26 0 .449-.046.563-.138.142-.115.213-.285.213-.508 0-.226-.082-.395-.246-.505-.12-.082-.314-.124-.582-.124h-.826Z" fill="#fff"/><path d="M21.375 18.75c-.224 0-.44.028-.648.08l-2.072-5.437a.3.3 0 0 0-.281-.192V13.2h-1.986a.338.338 0 1 0 0 .675h1.809l1.97 5.17a2.624 2.624 0 1 0 1.208-.295Zm0 4.125a1.5 1.5 0 0 1-.803-2.765l.523 1.372a.3.3 0 1 0 .56-.214l-.522-1.372a1.5 1.5 0 1 1 .242 2.979ZM11.25 16.35a.675.675 0 0 0-.675-.675H6.75v.675h4.5Z" fill="#fff"/><path d="M18.274 14.925h-1.959a.671.671 0 0 0-.41.14c-.493.384-1.635 1.275-1.775 1.386a.884.884 0 0 1-.555.199H6.75v.9h1.875a3.824 3.824 0 0 1 3.812 3.525h-1.205a2.625 2.625 0 1 0 0 .6h5.721a.611.611 0 0 0 .611-.611v-.021a3.82 3.82 0 0 1 1.904-2.984l-1.194-3.134Zm-9.65 7.95a1.5 1.5 0 1 1 1.47-1.8H8.627a.3.3 0 1 0-.001.6h1.47a1.5 1.5 0 0 1-1.47 1.2Z" fill="#fff"/></g><defs><clipPath id="a"><path fill="#fff" d="M0 0h30v30H0z"/></clipPath></defs></svg>
